X:188
T: Zhao jingzi
N: C1680
O: China, Jiangxi, Ganzhou
S: IV, 239]
R: Xiaodiao]
M: 4/4
L: 1/16
K: C
A2AcG2E2D8 | d3cAGAcd8 |
A2G2A2d2c2A2G4 | c2G2A8z4 |
A2c2G2EGA8 | D3EG2E2D8 |
d2d2d2e2d2AcG2A2 | c6d2
E2G2c2cA | G4A2AEG8

